X:1
T:Polsk
T:(Totakt-pols, nr. MN-287)
S:efter Mads Nielsen
R:Totakt-pols
O:Tyvkjaer Mark, Vejle amt, Danmark
Z:ABC-transkribering av Åke Persson
M:2/4
L:1/8
K:G
[| gfed | ef d2 | dfaf | gaba | gfed | ef d2 | dfaf | g2 g2 ||
| G2 BG | Bddd | BGBd | g (3(agf) g | G2 BG | Bddd | BGBd | g2 g2 | |]

